X:149
T:Schottische. Le4.149, The
T:Original Schottische,aka. Le4.149, The
Q:1/4=100
L:1/8
B:L.Leadley MS#4 c1850
Z:vmp.Mike Hicken 2015 www.village-music-project.org.uk
N:Tune 102 in "The Fiddler of Helperby"
M:2/4
K:G
(B/c/)|db ca|Bg- g/d/B/G/|Fe- e/d/c/A/|Ge- e/d/B/c/|db ca|Bg- g/d/B/G/|Fe e/d/c/A/|GB G :|
G|GA/B/ c/d/e/f/|gB d2|eA c2|dG B2|GA/B/ c/d/e/f/|gB d2|ec df|ggg :|
K:D
|: F|BB (B/A/B/c/)|d/c/B d/c/B|cf cf|(d/e/c/d/) BB|dd (d/c/d/e/)|f/e/d f/e/d|ea ea|fd d||
K:G
B/c/|db ca|Bg- g/d/B/G/|Fe- e/d/c/A/|Ge- e/d/B/d/|db ca|Bg- g/d/B/G/|Fe- e/d/c/A/|GBG !fermata!:|

